!!!COM: de Machuat, Guillaume
!!!OTL: Ce qui soustient moy
!! Guillaume de Machaut, "Ce qui soustient moy" No. 12 from Volume 5 of
!! "Oeuvres Comple\tes" E/ditions de l'Oiseau-lyre (Monaco) -1977; p.14
**kern	**kern
*M6/8	*M6/8
=1	=1
2.B-	4e-
.	4d
.	4e-
2.A	4.d
.	8d
.	4c
=2	=2
1.G	2.d
.	8d
.	8r
.	8r
.	8d
.	4e
=3	=3
2.F	4.f
.	8e-
.	4d
2.G	2c
.	4B-
=4	=4
1.D	1.A
=5	=5
2.D	4.d
.	8c
.	4B-
4r	4A
2Bn	2G
=6	=6
2A	2.F#
4G	.
4.F#	4r
.	2A
8E	.
4F#	.
=7	=7
4.G	2.G
8c	.
4Bn	.
4A	4r
2G	4d
.	4e
=8	=8
2F	4.f
.	8e-
4G	4d
2A	2c
4G	4B-
=9	=9
1.D;	1.A;
=10	=10
4r	4Bn
2C	2c
2.C	4G
.	8r
.	8d
.	4c
=11	=11
4r	8B-
.	8A
2G	4B-
.	4G
2.G	8e-
.	4d
.	8c
.	4B-
=12	=12
4r	4A
2B-	2G
2.A	2.F#
=13	=13
4.c	4.Fn
8B-	8G
4A	4A
4G	4B-
2F	2A
=14	=14
2.G	2.G
2.F	8f
.	8e
.	4f
.	4d
=15	=15
2.E	4.c#
.	8B
.	4c#
4.D	8e
.	4d
8A	8c#
4G	4B
=16	=16
2F	4.A
.	8A
4E	4G
2.D	4.F#
.	8E
.	4F#
=17	=17
1.C	1.G
==	==
*-	*-
